X:1
T:Vater unser
T:Benedictus Ducis
T:Source : DDT 34---Leipzig---Breitkopf & Härtel---J.Wolf---1908. First publication : Neue Deudsche Geistliche Gesenge---Wittemberg---G.Rhau---1544. Editor : André Vierendeels (16/07/17).
T:Notes : Original Clefs : C1, C3, C4, F4 Original note values have been halved Editorial accidentals above the staff
T:Vater unser
T:©
T:©
T:©
C:Benedictus Ducis
Z:©
%%score [ 1 [ 2 3 ] 4 ]
L:1/8
Q:1/4=123
M:2/2
K:C
V:1 treble nm="Alto" snm="A"
V:2 treble-8 nm="Tenor 1" snm="T 1"
V:3 treble-8 nm="Tenor 2" snm="T 2"
V:4 bass nm="Bass" snm="B"
V:1
 E8 | E4 F4 | G4 E2 F2- | FE E4 D2 | E6 D2 | E2 F2 G4 | F2 E3 F G2 | E2 A4 G2 | A8 | G4 A4 | %10
w: Va-|ter un-|ser im Him-|* * * mel-|reich, der|du uns al-|le heis- * *|* * sest|gleich|Brü- der|
 G2 F2 E4 | C4 D4 | C4 z2 G2 | G2 G2 F2 G2- | GE F2 E3 D/C/ | B,2 B,2 A,4 | z2 E4 F2 | G2 A2 G4 | %18
w: sein und dich|ru- fen|an, Brü-|der sein und dich|_ _ _ ru- * *|* fen an,|und _|_ wilt das|
 E3 F G2 A2 | F4 E4- | E2 A4 G2 | A2 c2 B2 A2- |"^#" AG G4 F2 | G8 | z2 A2 A2 G2 | E4 E2 F2- | %26
w: Be- * ten von|uns han.|_ Gieb, dasz|nicht bet al- lein|_ _ der _|Mund,|hilf, dasz es|geh von Her-|
 FE E4 D2 | E4 z2 E2 | E2 E2 C2 c2- | c2 B2 A4 |"^#" G8 |] %31
w: * * * zen|Grund, hilf,|dasz es geh von|_ Her- zen|Grund.|
V:2
 B8 | c4 d4 | B4 c4 | c4 A4- | A2 G2 G2 A2 | c4 B3 c | d2 G2 A2 G2 | g2 f2 e4 | z2 c4 A2 | %9
w: Va-|ter un-|ser im|Him- *|* mel- reich, der|du uns _|_ al- * le|heis- sest gleich|Brü- der|
 e3 d c2 f2 | e2 d2 c2 B2- | BA A4 G2 | A4 z2 G2- | G2 A2 B2 c2- | cA B2 E2 A2- |"^#" A2 G2 A4 | %16
w: sein _ _ und|dich _ _ ru-|* * * fen|an, Brü-|* der sein und|_ _ _ dich ru-|* fen an,|
 z2 c4 c2 | B2 A2 d4 | c4 B2 A2- | A2 GF G2 A2 | G2 AB cd e2 | f2 g4 f2 | e2 e2 d4 | B8 | %24
w: und wilt|_ das Be-|ten von uns|_ _ _ _ _|han. Gieb, _ _ _ dasz|nicht bet al-|* lein der|Mund,|
 z2 e4 d2 | c2 B2 c4 | c4 A4 | A4 z2 G2 | G2 G2 A4- | A2 B2 c2 c2 | B8 |] %31
w: hilf, dasz|es geh von|Her- zen|Grund, hilf,|dasz es geh|_ von Her- zen|Grund.-|
V:3
 E8 | A4 A4 | G4 A4 | G4 F4 | E4 z4 | A4 G4 | A2 c4 B2 | c2 d2 B4 | A4 z2 c2- | c2 B2 A2 c2- | %10
w: Va-|ter un-|ser im|Him- mel-|reich|der du|uns al- le|heis- * sest|gleich Brü-|* * der sein|
 cB A4 G2 | F2 E2 D4 | E8 | z8 | z8 | z8 | A4 A4 | G2 c4 B2 | A2 G4 c2- | c2 B2 c4- | c4 z2 B2 | %21
w: _ _ und dich|ru- * fen|an,||||und wilt|das Be- *|ten von _|_ uns han.|_ Gieb,|
 d2 e2 d4 | B2 c2 A4 | G4 z2 G2- | GA B2 c2 A2- | A2 G2 A4 | G4 F4 | E8- | E8- | E8- | E8 |] %31
w: dasz nicht bet|al- lein der|Mund, hilf|_ _ dasz es geh|_ von Her-|* zen|Grund.|_|||
V:4
 E,8 | A,,4 D,4 | E,4 A,,4 |"^#" C,4 D,4 | A,,2 C,4 B,,2 | A,,4 E,4 | D,2 C,3 D, E,2- | %7
w: Va-|ter un-|ser im|Him- mel-|reich, der du|uns al-|le heis- * *|
 E,2 D,2 E,4 | z2 F,4 F,2 | E,4 F,3 E, | C,2 D,2 E,4 | A,,4 B,,4 | A,,4 z2 C,2- | %13
w: * sest gleich|Brü- der|sein und _|_ dich ru-|* fen|an, Brü-|
 C,2 C,2 B,,2 A,,2- | A,,2 G,,2 A,,2 F,,2 | E,,4 z4 | A,,4 A,,4 | E,2 F,2 G,4 | C,3 D, E,2 F,2 | %19
w: * der sein und|_ dich ru- fen|an,|und wilt|das _ Be-|ten _ _ von|
 D,4 C,4- | C,2 F,4 E,2 | D,2 C,2 D,4 | E,2 C,2 D,4 | E,8 | z2 E,2 C,2 D,2 | E,4 A,,4 | C,4 D,4 | %27
w: uns han.|_ Gieb, dasz|dasz nicht bet|a- lein der|Mund,|hilf, dasz es|geh von|Her- zen|
 A,,4 z2 C,2 | C,2 C,2 A,,4- |"^#" A,,2 G,,2 A,,2 A,,2 | E,8 |] %31
w: Grund, hilf,|dasz es geh|_ von Her- zen|Grund.|

